X: 17336
T: High And Mighty
R: reel
M: 4/4
K: Amajor
|:CEAB c2BA|BABc AF F2|CEAB c2 BA|BABc A4|
CEAB c2BA|BABc AFED|CEAB ce c/B/A|BABc A4:|
|:ecAE CEAc|BAcB AF F2|ecAE CEAc|BABc A4|
ecAE CEAc|d2 cd BAFG|AFEC EFAc|BABc A4:|

